X:245
T:Killimor Jig, The
T:Killimore Jig, The
T:Killimer Jig, The
R:jig
C:Sean Ryan (-1985)
Z:id:hn-jig-245
M:6/8
K:G
DEF ~G3|BAG ABc|d^cd ~f3|ded cAF|
DEF ~G3|BAG ABc|d^cd fed|cAF ~G3:|
|:GBd ~g3|dgb gdB|GBd ~g3|fed cAF|
GBd ~g3|dgb gdB|GBd fed|cAF ~G3:|

